X: 32503
T: Planxty Burke
R: waltz
M: 3/4
K: Edorian
M:6/8
|:E>FG/A/ B2 A|GBG AFD|DFD dDA|DFD A2 D|
EGE BGE|EGE eEc|d2 d def|d3 B3:|
|:fed edc|dcB A2 c|d>cB e>dc|dcB AFD|
E>GE B2 E|EGE BEe|d2 d def|d3 B3:|
|:B>cd d2 c|de/d/c/B/ AF^D|E2 e e>fg|eBc d3|
f>ed cBA|B>cd AF^D|EeA BdF|G3 E3:|

